X: 1861
T: School Polka No 1
B: australian traditional tunes wiki
M:2/4
L:1/8
R: Set Tune
Q: 1/4=100
K:D
V:1 
|: "D" aa a/2f/2d/2f/2 | "A7" fe e>f | gg g/2e/2c/2e/2 | "D" ed df/2g/2 |
"D" aa a/2f/2d/2f/2 | "A7" fe e>f | gc fe | "D" dd d2:||
|:"A7" AA B/2c/2d/2e/2 | "D" fa a>f | "A7" ea a>e | "D" da a2 |
"A7" AA B/2c/2d/2e/2 | "D" fa a>f | "A7" ea a>e | "D" dd d2:||
NOTES 
The Dawsons recollected that they got this from the back of the school paper, which was a publication 
sent once a fortnight to Victorian and Tasmanian schools. They recalled the year as being about 1911.
% abcbook-tune_id 6342d53a94cdc4a3ead80c2f


% abcbook-boost 0
% abcbook-tablature 
% abcbook-transpose 
% abcbook-lastupdated 1665324388727
% abcbook-soundfonts 
% abcbook-repeats 1
% NFF Book 2006
%%begintext align
%%endtext

